images/FB.svg

<svg width="43" height="43" viewBox="0 0 43 43" fill="none" xmlns="http://www.w3.org/2000/svg">
<ellipse cx="21.5112" cy="21.5" rx="21.4888" ry="21.5" fill="white"/>
<path d="M24.6987 13.0033L22.7799 13C20.6242 13 19.231 14.5455 19.231 16.9376V18.7531H17.3017C17.135 18.7531 17 18.8993 17 19.0795V21.71C17 21.8903 17.1352 22.0363 17.3017 22.0363H19.231V28.6738C19.231 28.854 19.366 29 19.5327 29H22.0499C22.2166 29 22.3517 28.8539 22.3517 28.6738V22.0363H24.6075C24.7742 22.0363 24.9092 21.8903 24.9092 21.71L24.9101 19.0795C24.9101 18.993 24.8782 18.9101 24.8217 18.8488C24.7652 18.7876 24.6883 18.7531 24.6082 18.7531H22.3517V17.2141C22.3517 16.4744 22.5147 16.0989 23.4058 16.0989L24.6984 16.0984C24.865 16.0984 25 15.9522 25 15.7721V13.3296C25 13.1496 24.8652 13.0037 24.6987 13.0033Z" fill="black"/>
</svg>

<svg width="43" height="43" fill="none" xmlns="http://www.w3.org/2000/svg"><ellipse cx="21.511" cy="21.5" rx="21.489" ry="21.5" fill="#fff"/><path d="M24.699 13.003L22.779 13c-2.155 0-3.548 1.546-3.548 3.938v1.815h-1.93c-.166 0-.301.146-.301.326v2.631c0 .18.135.326.302.326h1.929v6.638c0 .18.135.326.302.326h2.517c.167 0 .302-.146.302-.326v-6.638h2.256c.166 0 .301-.146.301-.326l.001-2.63a.34.34 0 00-.088-.231.29.29 0 00-.214-.096h-2.256v-1.539c0-.74.163-1.115 1.054-1.115h1.292c.167 0 .302-.147.302-.327V13.33c0-.18-.135-.326-.301-.327z" fill="#000"/></svg>
